carriers/postChFr.svg

<svg width="128" height="64" viewBox="0 0 128 64" fill="none" xmlns="http://www.w3.org/2000/svg">
<rect width="128" height="64" rx="6" fill="#FFCC00"/>
<path fill-rule="evenodd" clip-rule="evenodd" d="M89.8242 44L91.0896 38.0175H17.7282L16.4453 44H89.8242Z" fill="white"/>
<path fill-rule="evenodd" clip-rule="evenodd" d="M59.9333 33.776C59.4969 35.7876 58.6765 37.8822 56.3944 37.8822C54.2125 37.8822 53.8984 35.8225 54.3522 33.776C54.806 31.7295 55.6089 29.6698 57.8867 29.6698C60.0685 29.6698 60.3871 31.7295 59.9333 33.776ZM58.1224 27.4051C53.798 27.4051 52.1529 30.3418 51.4678 33.776C50.7827 37.2102 52.2271 40.1469 56.1544 40.1469C60.4787 40.1469 62.1194 37.2102 62.8089 33.776C63.4984 30.3418 62.054 27.4051 58.1136 27.4051" fill="black"/>
<path fill-rule="evenodd" clip-rule="evenodd" d="M48.1646 31.9301C48.1011 32.3913 47.8962 32.8215 47.5782 33.1614C47.2601 33.5013 46.8445 33.7343 46.3886 33.8283C46.1007 33.8821 45.8087 33.9098 45.5159 33.9112H44.4249L45.2977 29.8356H46.4715C46.7384 29.8275 47.0049 29.8614 47.2613 29.936C47.9289 30.1541 48.3304 30.8087 48.134 31.9301M47.7631 27.6363C47.3568 27.5803 46.9471 27.5526 46.5369 27.5534H43.1377L40.4453 40.0116H43.1289L43.9362 36.2065H45.494C46.1279 36.2243 46.7607 36.1448 47.3704 35.9709C48.2529 35.7062 49.044 35.2004 49.6546 34.5104C50.2652 33.8204 50.671 32.9736 50.8264 32.0654C51.2628 29.7352 50.0715 28.0072 47.7413 27.6232" fill="black"/>
<path fill-rule="evenodd" clip-rule="evenodd" d="M30.361 35.1331L33.1101 30.1542L33.817 35.1331H30.361ZM35.1217 27.5404H31.9057L26.0192 37.7513H22.4017L24.5835 27.5404H21.8955L19.2119 40.0117H27.6992L29.1217 37.3935H34.1486L34.5195 40.0117H37.2206L35.1217 27.5404Z" fill="black"/>
<path fill-rule="evenodd" clip-rule="evenodd" d="M68.1324 29.9098C68.6125 29.8655 69.0948 29.8495 69.5767 29.8618H71.6146L72.1164 27.5404H69.8473C69.0957 27.528 68.344 27.5571 67.5957 27.6276C65.8502 27.8284 64.1833 29.0895 64.1833 31.2887C64.1833 32.8029 65.056 33.5098 65.9287 34.1295L67.3731 35.1375C67.706 35.3432 68.0011 35.6045 68.2458 35.9098C68.38 36.0767 68.4525 36.2848 68.4509 36.4989C68.4598 36.741 68.3807 36.9782 68.2284 37.1666C67.84 37.6029 67.1506 37.7076 66.5353 37.7644C65.4234 37.8206 64.3111 37.6636 63.2582 37.3018V37.3542L62.4509 39.6407C63.6389 39.9989 64.8758 40.1683 66.1164 40.1426C69.4982 40.1426 71.4618 38.6502 71.4618 36.2458C71.4618 35.0371 70.6197 34.2298 69.7644 33.5927L68.1673 32.4364C67.5127 31.9476 67.0764 31.6116 67.0764 31.0575C67.0693 30.7687 67.1761 30.4888 67.3737 30.2781C67.5712 30.0675 67.8438 29.943 68.1324 29.9316" fill="black"/>
<path fill-rule="evenodd" clip-rule="evenodd" d="M91.3296 27.5404H83.7892L81.123 40.0117H88.7507L89.235 37.7513H84.3085L84.9761 34.6488H89.2525L89.7543 32.4015H85.4823L86.0365 29.7833H90.8365L91.3296 27.5404Z" fill="black"/>
<path fill-rule="evenodd" clip-rule="evenodd" d="M82.6983 27.5404H73.2423L72.7361 29.8531H76.1223L73.9404 40.0117H76.6634L78.8452 29.8531H82.2183L82.6983 27.5404Z" fill="black"/>
<path fill-rule="evenodd" clip-rule="evenodd" d="M103.984 27.536L105.581 20H95.4532C95.4532 20.0262 93.3456 29.8313 93.3369 29.8705H95.8634C95.8634 29.8444 97.4779 22.3345 97.4779 22.3345H102.592L100.978 29.8705H108.562L107.549 34.5833H99.9914C99.9914 34.6138 98.4816 41.6349 98.4816 41.6349H92.7565C92.7565 41.6611 92.2634 43.9607 92.259 44H100.489C100.489 43.9738 102.012 36.9353 102.012 36.9353H109.539C109.539 36.9091 111.546 27.5753 111.555 27.536H103.984Z" fill="#FF0000"/>
</svg>

<svg xmlns="http://www.w3.org/2000/svg" width="128" height="64" fill="none"><rect width="128" height="64" fill="#FC0" rx="6"/><path fill="#fff" fill-rule="evenodd" d="m89.824 44 1.266-5.983H17.728L16.445 44h73.38Z" clip-rule="evenodd"/><path fill="#000" fill-rule="evenodd" d="M59.933 33.776c-.436 2.012-1.257 4.106-3.539 4.106-2.181 0-2.496-2.06-2.042-4.106.454-2.047 1.257-4.106 3.535-4.106 2.181 0 2.5 2.06 2.046 4.106Zm-1.81-6.37c-4.325 0-5.97 2.936-6.655 6.37-.685 3.434.76 6.37 4.686 6.37 4.325 0 5.965-2.936 6.655-6.37.69-3.434-.755-6.37-4.695-6.37M48.165 31.93a2.252 2.252 0 0 1-1.776 1.898c-.288.054-.58.082-.873.083h-1.091l.873-4.075h1.173a2.55 2.55 0 0 1 .79.1c.668.218 1.07.873.873 1.994m-.37-4.294a8.854 8.854 0 0 0-1.227-.083h-3.4l-2.692 12.459h2.684l.807-3.806h1.558a6.206 6.206 0 0 0 1.876-.235 4.949 4.949 0 0 0 3.456-3.906c.437-2.33-.755-4.058-3.085-4.442M30.361 35.133l2.75-4.979.706 4.98h-3.456Zm4.76-7.593h-3.215l-5.887 10.211h-3.617l2.181-10.21h-2.688l-2.683 12.47h8.487l1.423-2.617h5.027l.37 2.618h2.702l-2.1-12.472ZM68.132 29.91c.48-.044.963-.06 1.445-.048h2.038l.501-2.322h-2.269a20.415 20.415 0 0 0-2.251.088c-1.746.2-3.413 1.462-3.413 3.66 0 1.515.873 2.222 1.746 2.841l1.444 1.009c.333.205.628.467.873.772a.93.93 0 0 1 .205.589c.009.242-.07.48-.223.668-.388.436-1.077.54-1.693.597a8.728 8.728 0 0 1-3.277-.462v.052l-.807 2.287c1.188.358 2.425.527 3.665.502 3.382 0 5.346-1.493 5.346-3.897 0-1.209-.842-2.016-1.698-2.653l-1.597-1.157c-.654-.488-1.09-.824-1.09-1.378a1.1 1.1 0 0 1 1.055-1.126M91.33 27.54h-7.54l-2.667 12.472h7.628l.484-2.26h-4.927l.668-3.103h4.276l.502-2.248h-4.272l.555-2.618h4.8l.493-2.243ZM82.698 27.54h-9.456l-.506 2.313h3.386L73.94 40.012h2.723l2.182-10.159h3.373l.48-2.313Z" clip-rule="evenodd"/><path fill="red" fill-rule="evenodd" d="M103.984 27.536 105.581 20H95.453c0 .026-2.107 9.831-2.116 9.87h2.526c0-.026 1.615-7.536 1.615-7.536h5.114l-1.614 7.537h7.584l-1.013 4.712h-7.558c0 .03-1.51 7.052-1.51 7.052h-5.724c0 .026-.494 2.326-.498 2.365h8.23c0-.026 1.523-7.065 1.523-7.065h7.527c0-.026 2.007-9.36 2.016-9.399h-7.571Z" clip-rule="evenodd"/></svg>
